X: 18179
T: Humours Of Ennistymon, The
R: jig
M: 6/8
K: Gmajor
dc|:~B3 BGB|AFA AFA|~B3 BAB|GBd gdc|
~B3 BAG|~A3 ABc|ded cAF|1 AGF Gdc:|2 AGF G B/c/d||
~f3 fed|cAG FGA|~g3 gfg|afd d2e|
fdd edd|cAG FGA|~B3 cAF|1 AGF GBd:|2 AGF G||

